X:1
T:Title
%%score { 1 | ( 2 3 ) }
L:1/8
M:4/4
K:F
V:1 treble nm="Grand Piano"
V:2 bass 
V:3 bass 
V:1
 z4 z2 z[Q:1/4=80] C | FFFF F A2 [Ac] | [Bd]>[Ac] [GB][FA] [EB]3 [EG]/A/ | %3
 [CEB][CFB][CGB][CDB] [CEB] [Be]2 [Bd] | [Ac]>[Bd] [Ac][GB] A3 F |[M:7/8] AAA Bc c2 |[M:1/8] A/B/ | %7
[M:4/4] [FAc][FAc][FBd][Fc_e] [FBd]3 [Fd] | [Fe]>[Fd] F[Fd] .[Fd]2 [CFA][Fc] | %9
[M:7/8] [Ec]>[DEB][CFA] [B,CG] [F,A,CF]3 |[M:1/8] A/B/ |[M:4/4] c>d cA F3 F | GABc [Dd]3 [Fd] | %13
 [Fe]>[Fd] F[Fd] [Fd][Fc][FA]F |[M:7/8] [Ec][Fc][Gc] [Ec] [CF]3 |] %15
V:2
 z4 z2 z [F,A,] | [F,A,C][F,A,C][F,A,C][F,A,C] [F,A,C] [F,CF]2 [F,F] | %2
 [F,F]>[F,F] [F,C][F,C] [G,C]3 z/ F/ | C,D,E,F, G, [G,C]2 [C,C] | %4
 [C,C]>[C,C] [C,C][C,C] [F,CF]3 [F,A,] | %5
[M:7/8][K:treble] [F,CF][F,CF][F,CF] [F,G,F][F,A,F] [F,A,F]2 |[M:1/8] F/G/ | %7
[M:4/4][K:bass] F,F,F,F, B,,3 [B,,B,] | %8
 [=B,,_A,]>[B,,A,] [B,,A,][B,,A,] z[K:treble] c[K:bass]C,[C,=A,] |[M:7/8] [C,G,]>C,C, C, F,,3 | %10
[M:1/8] [F,F] |[M:4/4] [F,A,F]>[F,B,F] [F,A,F][F,CF] [F,A,]3 [F,A,_E] | %12
 [F,B,_E][F,CE][F,G,E][F,A,E] [B,,B,]3 [B,,B,] | %13
 [=B,,_A,]>[B,,A,] [B,,A,][B,,A,] [C,=A,][C,A,][C,C][C,A,] | %14
[M:7/8] [C,G,][C,A,][C,B,] [C,B,] [F,A,]3 |] %15
V:3
 x8 | x8 | z4 z2 z [C,C] | x8 | x8 |[M:7/8][K:treble] x7 |[M:1/8] [F,C] |[M:4/4][K:bass] x8 | %8
 z4 [C,=A,]2[K:treble][K:bass] z2 |[M:7/8] x7 |[M:1/8] z/ G,/ |[M:4/4] x8 | x8 | x8 |[M:7/8] x7 |] %15

